2 Export/Icons/Rounded/Calendar.svg

<svg xmlns="http://www.w3.org/2000/svg" xmlns:xlink="http://www.w3.org/1999/xlink" width="24" height="24" viewBox="0 0 24 24">
  <defs>
    <path id="calendar-a" d="M16 13h-3c-.55 0-1 .45-1 1v3c0 .55.45 1 1 1h3c.55 0 1-.45 1-1v-3c0-.55-.45-1-1-1zm0-10v1H8V3c0-.55-.45-1-1-1s-1 .45-1 1v1H5c-1.11 0-1.99.9-1.99 2L3 20a2 2 0 0 0 2 2h14c1.1 0 2-.9 2-2V6c0-1.1-.9-2-2-2h-1V3c0-.55-.45-1-1-1s-1 .45-1 1zm2 17H6c-.55 0-1-.45-1-1V9h14v10c0 .55-.45 1-1 1z"/>
  </defs>
  <g fill="none" fill-rule="evenodd">
    <polygon points="0 0 24 0 24 24 0 24"/>
    <mask id="calendar-b" fill="#fff">
      <use xlink:href="#calendar-a"/>
    </mask>
    <use fill="#000" xlink:href="#calendar-a"/>
    <g fill="#000" mask="url(#calendar-b)">
      <rect width="24" height="24"/>
    </g>
  </g>
</svg>

<svg xmlns="http://www.w3.org/2000/svg" xmlns:xlink="http://www.w3.org/1999/xlink" width="24" height="24" viewBox="0 0 24 24">
  <defs>
    <path id="calendar-a" d="M16,13 L13,13 C12.45,13 12,13.45 12,14 L12,17 C12,17.55 12.45,18 13,18 L16,18 C16.55,18 17,17.55 17,17 L17,14 C17,13.45 16.55,13 16,13 Z M16,3 L16,4 L8,4 L8,3 C8,2.45 7.55,2 7,2 C6.45,2 6,2.45 6,3 L6,4 L5,4 C3.89,4 3.01,4.9 3.01,6 L3,20 C3,21.1 3.89,22 5,22 L19,22 C20.1,22 21,21.1 21,20 L21,6 C21,4.9 20.1,4 19,4 L18,4 L18,3 C18,2.45 17.55,2 17,2 C16.45,2 16,2.45 16,3 Z M18,20 L6,20 C5.45,20 5,19.55 5,19 L5,9 L19,9 L19,19 C19,19.55 18.55,20 18,20 Z"/>
  </defs>
  <g fill="none" fill-rule="evenodd">
    <polygon points="0 0 24 0 24 24 0 24"/>
    <mask id="calendar-b" fill="#fff">
      <use xlink:href="#calendar-a"/>
    </mask>
    <use fill="#000" xlink:href="#calendar-a"/>
    <g fill="#000" mask="url(#calendar-b)">
      <rect width="24" height="24"/>
    </g>
  </g>
</svg>
